X: 1
T: Hag's Dream, The
M: 9/8
L: 1/8
R: slip jig
K: Dmaj
|: d2 d f2 g afd | d2 d f2 d ecA | d2 d f2 g afd |  f2 f gec d3 :|
|: A2 A c2 d ecA | f2 f c2 d ecA | A2 A c2 d ecA |1 fd/e/f g>ec d3 :|2 f/g/af g>ec d2 ||
K: Gmaj
|: D | GBG B2 c dBG | GB/A/G BG/A/B AFD | GBG B2 c dBG | B>dB cAF G2 :|
|: E | DFD F2 G AFD | B^AB F2 G =AFD | DF/E/D F2 G A>FD | B/c/dB cAF G2 :|
